X: 1
P: Sine Bhan
R: Waltz
M: 3/4
K: D
L: 1/4
"D"D2 D|"D"E F2|"G"B2 A|"D"A3|"Bm"F2 E|F B2|"Em"A2 F|"A"E3|"D"D2 D|"D"E F2|"G"B2 A|"D"A3|"Bm"D2 D|"Em"F2 F|"A"E2 D|"D"D3|
"D"D2 D|"D"E F2|"G"d2 B|"D"B A2|"Bm"d2 B|"Bm"B A2|"Em"d2 F|"A"E3|"D"D2 D|E F2|"G"d2 B|"D"B A3|"Bm"D2 D|"G"F2 F|"A"E2 D|"D"D3|]

